X:1
T:Randolph
T:Randolph
T:Public  domain
T:Public  domain
Z:Public  domain
%%score { ( 1 2 ) ( 3 4 ) }
L:1/8
Q:1/4=140
M:8/4
K:D
V:1 treble nm="P1"
V:2 treble 
V:3 bass nm="P2"
V:4 bass 
V:1
"^Editor: John Henry Fowler""^( Revision: 11-21-2007 )" F4 A4 B2 A2 G2 F2 | %1
[M:8/4] E6 D2"^( 1906 )" D8 | F4 ^G4 A6"^Ralph Vaughan Williams" A2 | %3
 B4"^( 1872 - 1958 )" c2 d2 d4 c4 | d6 c2 B4 A4 | G4 A2 B2 A4 G4 | F4 [=CA]4 B2 A2 G2 F2 | %7
 E6 D2 D8 |] %8
V:2
 D4 A4 D8 |[M:8/4] D4 C4 D8 | D4 E4 E4 C4 | F4 E4 E4 E4 | D6 D2 D4 D4 | E4 E4 E4 C4 | D8 [B,D]8 | %7
 D4 C4 A,8 |] %8
V:3
 A,8 B,8 |[M:8/4] E,4 G,4 F,8 | A,4 B,4 A,4 A,4 | A,4 ^G,4 A,4 A,4 | A,6 A,2 B,4 B,4 | %5
 B,4 G,4 A,4 A,4 | A,8 G,8 | A,4 G,4 F,8 |] %8
V:4
 D,4 F,4 G,4 E,4 |[M:8/4] A,,8 D,8 | D,4 D,4 C,4 F,4 | D,4 E,4 A,4 z2 =G,2 | F,6 F,2 G,4 F,4 | %5
 E,4 D,4 C,4 A,,4 | D,4 F,4 z4 E,4 | A,,8 D,8 |] %8

